#define picture-6_width 96
#define picture-6_height 96
static char picture-6_bits[] = {
  0x00, 0x00, 0x00, 0x00, 0x00, 0x00, 0x00, 0x00, 0x00, 0x00, 0x00, 0x00, 
  0x00, 0x00, 0x00, 0x00, 0x00, 0x00, 0x00, 0x00, 0x00, 0x00, 0x00, 0x00, 
  0x00, 0x00, 0x00, 0x00, 0x00, 0x00, 0x00, 0x00, 0x00, 0x00, 0x00, 0x00, 
  0x00, 0x00, 0x00, 0x00, 0x00, 0x00, 0x00, 0x00, 0x00, 0x00, 0x00, 0x00, 
  0x00, 0x00, 0x00, 0x00, 0x00, 0x00, 0x00, 0x00, 0x00, 0x00, 0x00, 0x00, 
  0x00, 0x00, 0x00, 0x00, 0x00, 0x00, 0x00, 0x00, 0x00, 0x00, 0x00, 0x00, 
  0x00, 0x00, 0x00, 0x00, 0x00, 0x00, 0x00, 0x00, 0x00, 0x00, 0x00, 0x00, 
  0x00, 0x00, 0x00, 0x00, 0x00, 0x00, 0x00, 0x00, 0x00, 0x00, 0x00, 0x00, 
  0x00, 0x00, 0x00, 0x00, 0x00, 0x00, 0x00, 0x00, 0x00, 0x00, 0x00, 0x00, 
  0x00, 0x00, 0x00, 0x00, 0x00, 0x00, 0x00, 0x00, 0x00, 0x00, 0x00, 0x00, 
  0x00, 0x00, 0x00, 0x00, 0x00, 0x00, 0x00, 0x00, 0x00, 0x00, 0x00, 0x00, 
  0x00, 0x00, 0x00, 0x00, 0x00, 0x00, 0x00, 0x00, 0x00, 0x00, 0x00, 0x00, 
  0x00, 0x00, 0x00, 0x00, 0x00, 0x00, 0x00, 0x00, 0x00, 0x00, 0x00, 0x00, 
  0x00, 0x00, 0x00, 0x00, 0x00, 0xF0, 0x07, 0x00, 0x00, 0x00, 0x00, 0x00, 
  0x00, 0x00, 0x70, 0xDB, 0x76, 0x1C, 0x8E, 0xDB, 0x6D, 0x07, 0x00, 0x00, 
  0x00, 0x00, 0xDC, 0xFF, 0x7F, 0x86, 0x98, 0xFF, 0xFF, 0x0F, 0x00, 0x00, 
  0x00, 0x00, 0x84, 0x26, 0x09, 0xD2, 0x37, 0x6C, 0xDB, 0x18, 0x00, 0x00, 
  0x00, 0x00, 0xB2, 0xFF, 0x3F, 0xFB, 0x27, 0xFF, 0xFF, 0x96, 0x00, 0x00, 
  0x00, 0x00, 0xD2, 0x00, 0x00, 0xF1, 0x67, 0x00, 0x80, 0x96, 0x01, 0x00, 
  0x00, 0x00, 0x46, 0x00, 0x00, 0xFD, 0x6F, 0x00, 0x80, 0x91, 0x03, 0x00, 
  0x00, 0x00, 0x3E, 0x00, 0x00, 0x3D, 0x4F, 0x00, 0x00, 0x9F, 0x07, 0x00, 
  0x00, 0x00, 0x1E, 0x1E, 0x00, 0xF9, 0x67, 0x00, 0x1C, 0x9E, 0x0F, 0x00, 
  0x00, 0x00, 0x1A, 0x72, 0x1E, 0xF1, 0x67, 0x3C, 0x33, 0x96, 0x1F, 0x00, 
  0x00, 0x00, 0x1E, 0xC2, 0x31, 0xFB, 0x27, 0xE2, 0x21, 0x96, 0x1F, 0x00, 
  0x00, 0x00, 0x1E, 0xCE, 0x21, 0xF2, 0x37, 0xE2, 0x1C, 0x9E, 0x3F, 0x00, 
  0x00, 0x00, 0x1E, 0x61, 0x13, 0x86, 0x18, 0x36, 0x43, 0x9E, 0x7F, 0x00, 
  0x00, 0x00, 0x1A, 0xBB, 0x0C, 0x1C, 0x0C, 0x4C, 0x3E, 0x96, 0xFF, 0x00, 
  0x00, 0x00, 0x1E, 0xCC, 0x01, 0xF0, 0x07, 0xC0, 0x18, 0x9E, 0x7F, 0x00, 
  0x00, 0x00, 0x1C, 0x00, 0x00, 0x80, 0x00, 0x00, 0x00, 0x9E, 0x7F, 0x00, 
  0x00, 0x00, 0x1E, 0x00, 0x00, 0x00, 0x00, 0x00, 0x00, 0x96, 0x3F, 0x00, 
  0x00, 0x00, 0x1A, 0x00, 0x00, 0x00, 0x00, 0x00, 0x00, 0x96, 0x1F, 0x00, 
  0x00, 0x00, 0x1C, 0x00, 0x00, 0x00, 0x00, 0x00, 0x00, 0x9E, 0x1F, 0x00, 
  0x00, 0x00, 0x1E, 0xFE, 0xFF, 0xFF, 0xFF, 0xFF, 0x3F, 0x9E, 0x1F, 0x00, 
  0x00, 0x00, 0x1A, 0x00, 0x00, 0x00, 0x00, 0x00, 0x00, 0x96, 0x0F, 0x00, 
  0x00, 0x00, 0x1E, 0x00, 0x00, 0x00, 0x00, 0x00, 0x00, 0x96, 0x0F, 0x00, 
  0x00, 0x00, 0x1E, 0x00, 0x00, 0x00, 0x00, 0x00, 0x00, 0x9E, 0x0F, 0x00, 
  0x00, 0x00, 0x1E, 0x00, 0x00, 0x00, 0x00, 0x00, 0x00, 0x9E, 0x0F, 0x00, 
  0x00, 0x00, 0x1A, 0x00, 0x00, 0x00, 0x00, 0x00, 0x18, 0x96, 0x0F, 0x00, 
  0x00, 0x00, 0x1E, 0x00, 0x00, 0x00, 0x00, 0x00, 0x00, 0x9E, 0x0F, 0x00, 
  0x00, 0x00, 0x1E, 0x00, 0x00, 0x00, 0x00, 0x00, 0x00, 0x9E, 0x0F, 0x00, 
  0x00, 0x00, 0x1E, 0x00, 0x00, 0x00, 0x00, 0x00, 0x00, 0x96, 0x0F, 0x00, 
  0x00, 0x00, 0x12, 0x00, 0x00, 0x00, 0x00, 0x00, 0x00, 0x96, 0x0F, 0x00, 
  0x00, 0x00, 0x1E, 0x00, 0x00, 0x00, 0x00, 0x00, 0x00, 0x9E, 0x0F, 0x00, 
  0x00, 0x00, 0x1E, 0xFE, 0xFF, 0xFF, 0xFF, 0xFF, 0x1F, 0x9E, 0x0F, 0x00, 
  0x00, 0x00, 0x1A, 0x00, 0x00, 0x00, 0x00, 0x00, 0x00, 0x96, 0x0F, 0x00, 
  0x00, 0x00, 0x1E, 0x00, 0x00, 0x00, 0x00, 0x00, 0x00, 0x9E, 0x0F, 0x00, 
  0x00, 0x00, 0x1E, 0xFE, 0xE3, 0xFF, 0xFF, 0xFF, 0x1F, 0x9E, 0x0F, 0x00, 
  0x00, 0x00, 0x1A, 0xFE, 0xE3, 0xFF, 0xFF, 0xFF, 0x1F, 0x96, 0x0F, 0x00, 
  0x00, 0x00, 0x1E, 0x00, 0x00, 0x00, 0x00, 0x00, 0x00, 0x9E, 0x0F, 0x00, 
  0x00, 0x00, 0x1E, 0xA8, 0x00, 0x00, 0x00, 0x00, 0x00, 0x9E, 0x0F, 0x00, 
  0x00, 0x00, 0x1E, 0xF8, 0x00, 0x00, 0x00, 0x00, 0x00, 0x96, 0x0F, 0x00, 
  0x00, 0x00, 0x1A, 0x8C, 0x81, 0xFF, 0x3F, 0x00, 0x00, 0x96, 0x0F, 0x00, 
  0x00, 0x00, 0x1E, 0x04, 0x01, 0xFF, 0x3F, 0x00, 0x00, 0x9E, 0x0F, 0x00, 
  0x00, 0x00, 0x1C, 0x04, 0x01, 0x00, 0x00, 0x00, 0x00, 0x9C, 0x07, 0x00, 
  0x00, 0x00, 0x1E, 0x8C, 0x01, 0x26, 0x06, 0x00, 0xFF, 0x90, 0x07, 0x00, 
  0x00, 0x00, 0x1E, 0xF8, 0x80, 0xFF, 0x7F, 0xC0, 0xFF, 0x93, 0x07, 0x00, 
  0x00, 0x00, 0x1E, 0x20, 0x00, 0x9B, 0x00, 0xE0, 0x00, 0x87, 0x07, 0x00, 
  0x00, 0x00, 0x1E, 0x60, 0x80, 0x09, 0x00, 0x60, 0x03, 0x86, 0x07, 0x00, 
  0x00, 0x00, 0x1A, 0xFC, 0x01, 0x00, 0x00, 0x60, 0x03, 0x86, 0x07, 0x00, 
  0x00, 0x00, 0x1E, 0x0E, 0x03, 0x00, 0x00, 0x60, 0x03, 0x06, 0x07, 0x00, 
  0x00, 0x00, 0x1E, 0x23, 0x0E, 0x80, 0x00, 0x60, 0x00, 0x06, 0x04, 0x00, 
  0x00, 0x00, 0x1E, 0xF9, 0x0C, 0x00, 0x01, 0xFE, 0x1F, 0x7E, 0x04, 0x00, 
  0x00, 0x00, 0x1A, 0x8D, 0x0D, 0x00, 0x07, 0xFF, 0x1F, 0xCE, 0x08, 0x00, 
  0x00, 0x00, 0x9E, 0x05, 0x09, 0x00, 0x0F, 0x03, 0x00, 0x86, 0x19, 0x00, 
  0x00, 0x00, 0x9E, 0x24, 0x19, 0x00, 0x8D, 0x01, 0x00, 0x86, 0x19, 0x00, 
  0x00, 0x00, 0x9A, 0x8D, 0x0D, 0x00, 0x8F, 0x01, 0x80, 0x06, 0x31, 0x00, 
  0x00, 0x00, 0x1E, 0xF9, 0x0C, 0x3E, 0x8C, 0x01, 0x00, 0x06, 0x73, 0x00, 
  0x00, 0x00, 0x1E, 0x71, 0x0C, 0x3F, 0x8C, 0x00, 0xFF, 0x07, 0xF3, 0x00, 
  0x00, 0x00, 0x1E, 0x07, 0x07, 0x63, 0x8C, 0xC0, 0xFF, 0x01, 0xF3, 0x00, 
  0x00, 0x00, 0x1A, 0xDC, 0x03, 0x63, 0x8C, 0xE0, 0x00, 0x00, 0xF3, 0x01, 
  0x00, 0x00, 0x1E, 0xFC, 0x01, 0xC3, 0x87, 0x60, 0x00, 0x00, 0xF3, 0x01, 
  0x00, 0x00, 0x1C, 0x2C, 0x01, 0x83, 0x87, 0x61, 0x00, 0x00, 0xF1, 0x01, 
  0x00, 0x00, 0x1E, 0x2C, 0x01, 0x03, 0x80, 0x69, 0x00, 0x80, 0xF1, 0x01, 
  0x00, 0x00, 0x1A, 0xFC, 0x01, 0x03, 0x00, 0x63, 0x00, 0x80, 0xF9, 0x01, 
  0x00, 0x00, 0x1E, 0xDC, 0x01, 0x03, 0x00, 0x7F, 0xF0, 0xFF, 0xF8, 0x01, 
  0x00, 0x00, 0x3E, 0x04, 0x01, 0x00, 0x00, 0x7E, 0xF0, 0x7F, 0xFC, 0x01, 
  0x00, 0x00, 0x66, 0x00, 0x00, 0x00, 0x00, 0x60, 0x00, 0x04, 0xFE, 0x00, 
  0x00, 0x00, 0xD6, 0x00, 0x00, 0x00, 0x00, 0x60, 0x80, 0x84, 0xFF, 0x00, 
  0x00, 0x00, 0xB6, 0xFF, 0xFF, 0xFF, 0xFF, 0x67, 0xC0, 0xE4, 0x7F, 0x00, 
  0x00, 0x00, 0x84, 0xB7, 0x6D, 0xDB, 0xB6, 0x65, 0x00, 0xE6, 0x3F, 0x00, 
  0x00, 0x00, 0xCC, 0xB7, 0x6D, 0xDA, 0xB6, 0xCD, 0x01, 0xE7, 0x1F, 0x00, 
  0x00, 0x00, 0xF8, 0xFF, 0xFF, 0xFF, 0xFF, 0x9F, 0xFF, 0xF1, 0x1F, 0x00, 
  0x00, 0x00, 0x00, 0x00, 0x00, 0x00, 0x00, 0x00, 0x00, 0xF8, 0x0F, 0x00, 
  0x00, 0x00, 0x00, 0x00, 0x00, 0x00, 0x00, 0x00, 0x00, 0xFC, 0x07, 0x00, 
  0x00, 0x00, 0xE0, 0xFF, 0xFF, 0xFF, 0xFF, 0xFF, 0xE7, 0xFF, 0x03, 0x00, 
  0x00, 0x00, 0x80, 0xFF, 0xFF, 0xFF, 0xFF, 0xFF, 0xFF, 0xFF, 0x01, 0x00, 
  0x00, 0x00, 0x00, 0xFF, 0xFF, 0xFF, 0xFF, 0x3F, 0xF0, 0x7F, 0x00, 0x00, 
  0x00, 0x00, 0x00, 0xFE, 0xFF, 0x1F, 0x00, 0x00, 0x00, 0x3F, 0x00, 0x00, 
  0x00, 0x00, 0x00, 0xFC, 0x0F, 0x00, 0x00, 0x00, 0x00, 0x00, 0x00, 0x00, 
  0x00, 0x00, 0x00, 0x00, 0x00, 0x00, 0x00, 0x00, 0x00, 0x00, 0x00, 0x00, 
  0x00, 0x00, 0x00, 0x00, 0x00, 0x00, 0x00, 0x00, 0x00, 0x00, 0x00, 0x00, 
  0x00, 0x00, 0x00, 0x00, 0x00, 0x00, 0x00, 0x00, 0x00, 0x00, 0x00, 0x00, 
  0x00, 0x00, 0x00, 0x00, 0x00, 0x00, 0x00, 0x00, 0x00, 0x00, 0x00, 0x00, 
  0x00, 0x00, 0x00, 0x00, 0x00, 0x00, 0x00, 0x00, 0x00, 0x00, 0x00, 0x00, 
  0x00, 0x00, 0x00, 0x00, 0x00, 0x00, 0x00, 0x00, 0x00, 0x00, 0x00, 0x00, 
  0x00, 0x00, 0x00, 0x00, 0x00, 0x00, 0x00, 0x00, 0x00, 0x00, 0x00, 0x00, 
  };
