#define picture-2_width 32
#define picture-2_height 32
static char picture-2_bits[] = {
  0xFF, 0xFF, 0xFF, 0xFF, 0xFF, 0xFF, 0xFF, 0xFF, 0xFF, 0xFF, 0xFF, 0xFF, 
  0x7F, 0x20, 0x04, 0xFE, 0x1F, 0x80, 0x01, 0xFC, 0xDF, 0xDF, 0xFF, 0xFB, 
  0xCF, 0xE0, 0x03, 0xEF, 0x4F, 0xE6, 0x73, 0xDF, 0x4F, 0xCF, 0x7B, 0xBF, 
  0x4F, 0x00, 0x00, 0xFF, 0x4F, 0x00, 0x00, 0xFF, 0x4F, 0x00, 0x00, 0xFF, 
  0x4F, 0x00, 0x00, 0xFF, 0x4F, 0x00, 0x00, 0xFF, 0x4F, 0x5A, 0x79, 0xFF, 
  0x4F, 0xE6, 0x7F, 0xFF, 0x4F, 0x06, 0x00, 0xFF, 0x4F, 0xC7, 0x03, 0xFF, 
  0x4F, 0xE6, 0xE3, 0xFD, 0x4F, 0x06, 0xF0, 0xF9, 0x4F, 0x0F, 0xF9, 0xF3, 
  0xCF, 0x0D, 0xFD, 0x75, 0x4F, 0xEF, 0xFE, 0xF9, 0x4F, 0xA7, 0x1D, 0xFC, 
  0x4F, 0x26, 0x1C, 0xF4, 0xCE, 0x00, 0x90, 0xFB, 0xCE, 0xFF, 0xBF, 0xFD, 
  0x96, 0xED, 0xEF, 0xFE, 0xA6, 0xFF, 0xFF, 0xFF, 0x0F, 0xFF, 0xFF, 0xFF, 
  0x05, 0xFE, 0xFF, 0xFF, 0x00, 0xFC, 0x0F, 0x02, };
