#define picture-7_width 128
#define picture-7_height 128
static char picture-7_bits[] = {
  0x00, 0x00, 0x00, 0x00, 0x00, 0x00, 0x00, 0x00, 0x00, 0x00, 0x00, 0x00, 
  0x00, 0x00, 0x00, 0x00, 0x00, 0x00, 0x00, 0x00, 0x00, 0x00, 0x00, 0x00, 
  0x00, 0x00, 0x00, 0x00, 0x00, 0x00, 0x00, 0x00, 0x00, 0x00, 0x00, 0x00, 
  0x00, 0x00, 0x00, 0x00, 0x00, 0x00, 0x00, 0x00, 0x00, 0x00, 0x00, 0x00, 
  0x00, 0x00, 0x00, 0x00, 0x00, 0x00, 0x00, 0x00, 0x00, 0x00, 0x00, 0x00, 
  0x00, 0x00, 0x00, 0x00, 0x00, 0x00, 0x00, 0x00, 0x00, 0x00, 0x00, 0x00, 
  0x00, 0x00, 0x00, 0x00, 0x00, 0x00, 0x00, 0x00, 0x00, 0x00, 0x00, 0x00, 
  0x00, 0x00, 0x00, 0x00, 0x00, 0x00, 0x00, 0x00, 0x00, 0x00, 0x00, 0x00, 
  0x00, 0x00, 0x00, 0x00, 0x00, 0x00, 0x00, 0x00, 0x00, 0x00, 0x00, 0x00, 
  0x00, 0x00, 0x00, 0x00, 0x00, 0x00, 0x00, 0x00, 0x00, 0x00, 0x00, 0x00, 
  0x00, 0x00, 0x00, 0x00, 0x00, 0x00, 0x00, 0x00, 0x00, 0x00, 0x00, 0x00, 
  0x00, 0x00, 0x00, 0x00, 0x00, 0x00, 0x00, 0x00, 0x00, 0x00, 0x00, 0x00, 
  0x00, 0x00, 0x00, 0x00, 0x00, 0x00, 0x00, 0x00, 0x00, 0x00, 0x00, 0x00, 
  0x00, 0x00, 0x00, 0x00, 0x00, 0x00, 0x00, 0x00, 0x00, 0x00, 0x00, 0x00, 
  0x00, 0x00, 0x00, 0x00, 0x00, 0x00, 0x00, 0x00, 0x00, 0x00, 0x00, 0x00, 
  0x00, 0x00, 0x00, 0x00, 0x00, 0x00, 0x00, 0x00, 0x00, 0x00, 0x00, 0x00, 
  0x00, 0x00, 0x00, 0x00, 0x00, 0x00, 0x00, 0x00, 0x00, 0x00, 0x00, 0x00, 
  0x00, 0x00, 0x00, 0x00, 0x00, 0x00, 0x00, 0x00, 0x00, 0x00, 0x00, 0x00, 
  0x00, 0x00, 0x00, 0x00, 0x00, 0x00, 0x00, 0x00, 0x00, 0x00, 0x00, 0x00, 
  0x00, 0x00, 0x00, 0x00, 0x00, 0x00, 0x00, 0x00, 0x00, 0x00, 0x00, 0x00, 
  0x00, 0x00, 0x00, 0x00, 0x00, 0x00, 0x00, 0x00, 0x00, 0x00, 0x00, 0x00, 
  0x00, 0x00, 0x00, 0x00, 0x00, 0x00, 0x00, 0x00, 0x00, 0x00, 0x00, 0x00, 
  0x00, 0x00, 0x00, 0x00, 0x00, 0x00, 0x00, 0x00, 0x00, 0x00, 0x00, 0x00, 
  0x00, 0x00, 0x00, 0xF0, 0x03, 0x00, 0x00, 0x00, 0x00, 0x00, 0x00, 0x00, 
  0x00, 0x00, 0x00, 0x00, 0x00, 0x00, 0x00, 0xFC, 0x0F, 0x00, 0x00, 0x00, 
  0x00, 0x00, 0x00, 0x00, 0x00, 0x00, 0x00, 0x7C, 0x77, 0x77, 0x1F, 0x07, 
  0x38, 0xBE, 0xFB, 0xFF, 0x0F, 0x00, 0x00, 0x00, 0x00, 0x00, 0x00, 0xFE, 
  0xFF, 0xFF, 0x8F, 0xC3, 0x70, 0xFC, 0xFF, 0xFF, 0x1F, 0x00, 0x00, 0x00, 
  0x00, 0x00, 0x00, 0xC3, 0xCC, 0xCC, 0x88, 0xC1, 0xE0, 0x40, 0x44, 0xCC, 
  0x30, 0x00, 0x00, 0x00, 0x00, 0x00, 0x80, 0xD9, 0xFF, 0xFF, 0xC7, 0xFC, 
  0xCF, 0xF8, 0xFF, 0xFF, 0x66, 0x02, 0x00, 0x00, 0x00, 0x00, 0x80, 0xDD, 
  0xFF, 0xFF, 0x47, 0xFE, 0x8F, 0xF9, 0xFF, 0xFF, 0x6E, 0x06, 0x00, 0x00, 
  0x00, 0x00, 0x80, 0xDC, 0x00, 0x00, 0x60, 0xFC, 0x8F, 0x01, 0x00, 0xC0, 
  0x6E, 0x06, 0x00, 0x00, 0x00, 0x00, 0x80, 0x61, 0x00, 0x00, 0x60, 0xFC, 
  0x8F, 0x01, 0x00, 0xC0, 0x60, 0x0E, 0x00, 0x00, 0x00, 0x00, 0x80, 0x73, 
  0x00, 0x00, 0x60, 0x3F, 0xBF, 0x01, 0x00, 0x80, 0x73, 0x1E, 0x00, 0x00, 
  0x00, 0x00, 0x80, 0x3F, 0x00, 0x00, 0x60, 0x3F, 0xBF, 0x01, 0x00, 0x00, 
  0x3F, 0x3E, 0x00, 0x00, 0x00, 0x00, 0x80, 0x0F, 0x3C, 0x00, 0x60, 0xFE, 
  0x9F, 0x01, 0x10, 0x07, 0x3C, 0x7E, 0x00, 0x00, 0x00, 0x00, 0x80, 0x0D, 
  0xFE, 0xE0, 0x60, 0xDC, 0x8F, 0xC1, 0xC1, 0x0F, 0x6C, 0xFE, 0x00, 0x00, 
  0x00, 0x00, 0x80, 0x0C, 0x82, 0xF9, 0x63, 0x3C, 0x8F, 0xF1, 0x67, 0x10, 
  0x6C, 0xFE, 0x01, 0x00, 0x00, 0x00, 0x80, 0x0D, 0x12, 0x0F, 0xC3, 0xFC, 
  0xDF, 0x30, 0x3C, 0x12, 0x6C, 0xFE, 0x03, 0x00, 0x00, 0x00, 0x80, 0x0F, 
  0x1E, 0x06, 0xC2, 0xFC, 0xCD, 0x10, 0x1C, 0x0F, 0x3C, 0xFE, 0x07, 0x00, 
  0x00, 0x00, 0x80, 0x0F, 0x88, 0x1B, 0x82, 0xC1, 0x60, 0x10, 0x76, 0x04, 
  0x3C, 0xFE, 0x07, 0x00, 0x00, 0x00, 0x80, 0x8D, 0xC1, 0xF0, 0x83, 0x83, 
  0x30, 0xF0, 0xC3, 0x20, 0x6C, 0xFE, 0x03, 0x00, 0x00, 0x00, 0x80, 0x0C, 
  0x7F, 0xE6, 0x00, 0x0F, 0x1C, 0xE0, 0x98, 0x3F, 0x6C, 0xFE, 0x03, 0x00, 
  0x00, 0x00, 0x80, 0x0D, 0x1C, 0x0E, 0x00, 0xFC, 0x0F, 0x00, 0x1C, 0x0E, 
  0x34, 0xFE, 0x03, 0x00, 0x00, 0x00, 0x00, 0x0F, 0x00, 0x06, 0x00, 0xF0, 
  0x03, 0x00, 0x08, 0x00, 0x3C, 0xFE, 0x03, 0x00, 0x00, 0x00, 0x80, 0x0D, 
  0x00, 0x00, 0x00, 0x00, 0x00, 0x00, 0x00, 0x00, 0x24, 0xFE, 0x01, 0x00, 
  0x00, 0x00, 0x80, 0x0D, 0x00, 0x00, 0x00, 0x00, 0x00, 0x00, 0x00, 0x00, 
  0x6C, 0xFE, 0x01, 0x00, 0x00, 0x00, 0x80, 0x0C, 0x00, 0x00, 0x00, 0x00, 
  0x00, 0x00, 0x00, 0x00, 0x6C, 0xFE, 0x00, 0x00, 0x00, 0x00, 0x80, 0x0D, 
  0x00, 0x00, 0x00, 0x00, 0x00, 0x00, 0x00, 0x00, 0x34, 0xFE, 0x00, 0x00, 
  0x00, 0x00, 0x00, 0x0F, 0xFE, 0xFF, 0xFF, 0x3F, 0xFF, 0xFF, 0xFF, 0x1F, 
  0x3C, 0xFE, 0x00, 0x00, 0x00, 0x00, 0x80, 0x0D, 0xFE, 0xFF, 0xFF, 0x9F, 
  0xFF, 0xFF, 0xFF, 0x1F, 0x34, 0xFE, 0x00, 0x00, 0x00, 0x00, 0x80, 0x0D, 
  0x00, 0x00, 0x00, 0x00, 0x00, 0x00, 0x00, 0x00, 0x6C, 0x7E, 0x00, 0x00, 
  0x00, 0x00, 0x80, 0x0C, 0x00, 0x00, 0x00, 0x00, 0x00, 0x00, 0x00, 0x00, 
  0x6C, 0x7E, 0x00, 0x00, 0x00, 0x00, 0x80, 0x0D, 0x00, 0x00, 0x00, 0x00, 
  0x00, 0x00, 0x00, 0x00, 0x3C, 0x7E, 0x00, 0x00, 0x00, 0x00, 0x80, 0x0F, 
  0x00, 0x00, 0x00, 0x00, 0x00, 0x00, 0x00, 0x00, 0x3C, 0x7E, 0x00, 0x00, 
  0x00, 0x00, 0x80, 0x0D, 0x00, 0x00, 0x00, 0x00, 0x00, 0x00, 0x00, 0x00, 
  0x24, 0x7E, 0x00, 0x00, 0x00, 0x00, 0x80, 0x0C, 0x00, 0x00, 0x00, 0x00, 
  0x00, 0x00, 0x00, 0x00, 0x6C, 0xFE, 0x00, 0x00, 0x00, 0x00, 0x80, 0x0C, 
  0xFE, 0xFF, 0xFF, 0xFF, 0xFF, 0xFF, 0xFF, 0x0F, 0x6C, 0x7E, 0x00, 0x00, 
  0x00, 0x00, 0x80, 0x0D, 0x00, 0x00, 0x00, 0x00, 0x00, 0x00, 0x00, 0x00, 
  0x6C, 0x7E, 0x00, 0x00, 0x00, 0x00, 0x80, 0x0F, 0x00, 0x00, 0x00, 0x00, 
  0x00, 0x00, 0x00, 0x00, 0x3C, 0x7E, 0x00, 0x00, 0x00, 0x00, 0x80, 0x0D, 
  0x00, 0x00, 0x00, 0x00, 0x00, 0x00, 0x00, 0x00, 0x24, 0x7E, 0x00, 0x00, 
  0x00, 0x00, 0x80, 0x0D, 0x00, 0x00, 0x00, 0x00, 0x00, 0x00, 0x00, 0x00, 
  0x6C, 0x7E, 0x00, 0x00, 0x00, 0x00, 0x80, 0x0D, 0x00, 0x00, 0x00, 0x00, 
  0x00, 0x00, 0x00, 0x00, 0x6C, 0x7E, 0x00, 0x00, 0x00, 0x00, 0x80, 0x0F, 
  0x00, 0x00, 0x00, 0x00, 0x00, 0x00, 0x00, 0x00, 0x3C, 0x3E, 0x00, 0x00, 
  0x00, 0x00, 0x80, 0x0F, 0xFE, 0xFF, 0xFF, 0xFF, 0xFF, 0xFF, 0xFF, 0x0F, 
  0x3C, 0x7E, 0x00, 0x00, 0x00, 0x00, 0x80, 0x0D, 0xFE, 0xFF, 0xFF, 0xFF, 
  0xFF, 0xFF, 0xFF, 0x0F, 0x2C, 0x7E, 0x00, 0x00, 0x00, 0x00, 0x80, 0x0D, 
  0x00, 0x00, 0x00, 0x00, 0x00, 0x00, 0x00, 0x00, 0x6C, 0x7E, 0x00, 0x00, 
  0x00, 0x00, 0x80, 0x0D, 0x00, 0x00, 0x00, 0x00, 0x00, 0x00, 0x00, 0x00, 
  0x2C, 0x7E, 0x00, 0x00, 0x00, 0x00, 0x80, 0x0F, 0x00, 0x00, 0x00, 0x00, 
  0x00, 0x00, 0x00, 0x00, 0x3C, 0x7E, 0x00, 0x00, 0x00, 0x00, 0x80, 0x0D, 
  0xFE, 0x1F, 0xFE, 0xFF, 0xFF, 0xFF, 0xFF, 0x1F, 0x6C, 0x7E, 0x00, 0x00, 
  0x00, 0x00, 0x80, 0x0C, 0x00, 0x00, 0x00, 0x00, 0x00, 0x00, 0x00, 0x00, 
  0x6C, 0x7E, 0x00, 0x00, 0x00, 0x00, 0x80, 0x0D, 0x00, 0x00, 0x00, 0x00, 
  0x00, 0x00, 0x00, 0x00, 0x6C, 0x7E, 0x00, 0x00, 0x00, 0x00, 0x80, 0x0F, 
  0x80, 0x00, 0x00, 0x00, 0x00, 0x00, 0x00, 0x00, 0x3C, 0x3E, 0x00, 0x00, 
  0x00, 0x00, 0x80, 0x0F, 0xF0, 0x07, 0x00, 0x00, 0x00, 0x00, 0x00, 0x00, 
  0x3C, 0x7E, 0x00, 0x00, 0x00, 0x00, 0x80, 0x0D, 0x70, 0x07, 0x00, 0x00, 
  0x00, 0x00, 0x00, 0x00, 0x6C, 0x7E, 0x00, 0x00, 0x00, 0x00, 0x80, 0x0C, 
  0x1C, 0x0E, 0xE0, 0xFF, 0xFF, 0x00, 0x00, 0x00, 0x6C, 0x7E, 0x00, 0x00, 
  0x00, 0x00, 0x80, 0x0D, 0x18, 0x0C, 0xF0, 0xFF, 0xFF, 0x01, 0x00, 0x00, 
  0x6C, 0x7E, 0x00, 0x00, 0x00, 0x00, 0x80, 0x0F, 0x0C, 0x1C, 0x00, 0x00, 
  0x00, 0x00, 0x00, 0x00, 0x3C, 0x3E, 0x00, 0x00, 0x00, 0x00, 0x80, 0x0F, 
  0x0C, 0x0C, 0x00, 0x00, 0x00, 0x00, 0x00, 0x00, 0x38, 0x3E, 0x00, 0x00, 
  0x00, 0x00, 0x80, 0x0D, 0x18, 0x0C, 0x80, 0xB1, 0x0C, 0x00, 0x80, 0x7F, 
  0x60, 0x3E, 0x00, 0x00, 0x00, 0x00, 0x80, 0x0D, 0x78, 0x0F, 0xC0, 0xFF, 
  0x1F, 0x00, 0xF0, 0xFF, 0x43, 0x3E, 0x00, 0x00, 0x00, 0x00, 0x80, 0x0D, 
  0xF0, 0x07, 0xF0, 0xFF, 0xFF, 0x01, 0xFC, 0xC0, 0x07, 0x3E, 0x00, 0x00, 
  0x00, 0x00, 0x80, 0x0F, 0x00, 0x00, 0x60, 0x0C, 0x00, 0x00, 0x0C, 0x00, 
  0x0E, 0x3E, 0x00, 0x00, 0x00, 0x00, 0x80, 0x0D, 0xC0, 0x01, 0x20, 0x06, 
  0x00, 0x00, 0xEC, 0x00, 0x0C, 0x3E, 0x00, 0x00, 0x00, 0x00, 0x80, 0x0D, 
  0xE8, 0x0B, 0x00, 0x00, 0x00, 0x00, 0xEC, 0x00, 0x0C, 0x3E, 0x00, 0x00, 
  0x00, 0x00, 0x80, 0x0D, 0x7C, 0x1F, 0x00, 0x00, 0x00, 0x00, 0xEC, 0x00, 
  0x0C, 0x3E, 0x00, 0x00, 0x00, 0x00, 0x80, 0x0D, 0x0C, 0x38, 0x00, 0x00, 
  0x00, 0x00, 0x4C, 0x00, 0x0C, 0x18, 0x00, 0x00, 0x00, 0x00, 0x80, 0x0F, 
  0x07, 0x70, 0x00, 0x80, 0x00, 0x00, 0x0C, 0x00, 0x0C, 0x20, 0x00, 0x00, 
  0x00, 0x00, 0x80, 0x0D, 0xE3, 0xE3, 0x00, 0x80, 0x01, 0xC0, 0xFF, 0x0F, 
  0xFC, 0x21, 0x00, 0x00, 0x00, 0x00, 0x80, 0x0D, 0x31, 0x47, 0x00, 0x00, 
  0x03, 0xF0, 0xFF, 0x0F, 0xFC, 0x43, 0x00, 0x00, 0x00, 0x00, 0x80, 0x0D, 
  0x1B, 0x6C, 0x00, 0x00, 0x0F, 0x38, 0x80, 0x0F, 0x0C, 0x46, 0x00, 0x00, 
  0x00, 0x00, 0x80, 0x8F, 0x19, 0xCC, 0x00, 0x00, 0x1F, 0x1C, 0x00, 0x00, 
  0x0C, 0x8E, 0x00, 0x00, 0x00, 0x00, 0x80, 0xCF, 0x88, 0x8C, 0x01, 0x00, 
  0x1B, 0x0C, 0x00, 0x00, 0x0C, 0x8C, 0x01, 0x00, 0x00, 0x00, 0x80, 0xCD, 
  0x18, 0x8C, 0x01, 0x00, 0x1F, 0x0C, 0x00, 0x00, 0x0C, 0x8C, 0x03, 0x00, 
  0x00, 0x00, 0x80, 0x8C, 0x19, 0xCC, 0x00, 0x06, 0x1E, 0x0E, 0x00, 0x00, 
  0x0C, 0x1C, 0x03, 0x00, 0x00, 0x00, 0x80, 0x0D, 0x7B, 0x67, 0x80, 0x1F, 
  0x18, 0x06, 0x00, 0x00, 0x0E, 0x18, 0x07, 0x00, 0x00, 0x00, 0x80, 0x0F, 
  0xE1, 0x43, 0xC0, 0x3F, 0x18, 0x06, 0x00, 0x00, 0x0F, 0x18, 0x0F, 0x00, 
  0x00, 0x00, 0x80, 0x0F, 0x07, 0x70, 0xC0, 0x39, 0x18, 0x06, 0xF0, 0xFF, 
  0x07, 0x18, 0x1F, 0x00, 0x00, 0x00, 0x80, 0x0D, 0x0F, 0x78, 0xE0, 0x30, 
  0x18, 0x06, 0xF8, 0xFF, 0x01, 0x18, 0x1F, 0x00, 0x00, 0x00, 0x80, 0x0C, 
  0x3C, 0x1E, 0xE0, 0x70, 0x18, 0x06, 0x1C, 0x00, 0x00, 0x18, 0x1F, 0x00, 
  0x00, 0x00, 0x80, 0x0D, 0x78, 0x0F, 0xE0, 0xE0, 0x1F, 0x06, 0x0E, 0x00, 
  0x00, 0x18, 0x1F, 0x00, 0x00, 0x00, 0x80, 0x0F, 0xD8, 0x09, 0xE0, 0xE0, 
  0x0F, 0x06, 0x06, 0x00, 0x00, 0x18, 0x1F, 0x00, 0x00, 0x00, 0x80, 0x0F, 
  0x18, 0x08, 0xE0, 0x80, 0x07, 0x0E, 0x06, 0x00, 0x00, 0x18, 0x1F, 0x00, 
  0x00, 0x00, 0x80, 0x0D, 0x18, 0x08, 0xE0, 0x00, 0x00, 0x0C, 0x06, 0x00, 
  0x00, 0x8C, 0x1F, 0x00, 0x00, 0x00, 0x80, 0x0D, 0xD8, 0x09, 0xE0, 0x00, 
  0x00, 0x0C, 0x06, 0x00, 0x00, 0x8C, 0x0F, 0x00, 0x00, 0x00, 0x80, 0x0D, 
  0xF8, 0x0F, 0xE0, 0x00, 0x00, 0x1C, 0x06, 0x00, 0x00, 0x86, 0x1F, 0x00, 
  0x00, 0x00, 0x80, 0x0D, 0x38, 0x0E, 0xC0, 0x00, 0x00, 0xF8, 0x07, 0xFC, 
  0xFF, 0xC7, 0x1F, 0x00, 0x00, 0x00, 0x80, 0x1F, 0x18, 0x0C, 0x00, 0x00, 
  0x00, 0xF0, 0x07, 0xFC, 0xFF, 0xE1, 0x1F, 0x00, 0x00, 0x00, 0x80, 0x73, 
  0x00, 0x00, 0x00, 0x00, 0x00, 0x00, 0x06, 0x00, 0x0C, 0xE0, 0x0F, 0x00, 
  0x00, 0x00, 0x80, 0xE1, 0x00, 0x00, 0x00, 0x00, 0x00, 0x00, 0x04, 0x00, 
  0x0C, 0xF8, 0x0F, 0x00, 0x00, 0x00, 0x80, 0xDD, 0x00, 0x00, 0x00, 0x00, 
  0x00, 0x00, 0x04, 0xC0, 0x0C, 0xFE, 0x07, 0x00, 0x00, 0x00, 0x80, 0x9D, 
  0xFF, 0xFF, 0xFF, 0xFF, 0xFF, 0x7F, 0x04, 0xC0, 0x8D, 0xFF, 0x03, 0x00, 
  0x00, 0x00, 0x80, 0x99, 0xFF, 0xFF, 0xFF, 0xFF, 0xFF, 0x7F, 0x0C, 0x80, 
  0x8C, 0xFF, 0x01, 0x00, 0x00, 0x00, 0x00, 0xC3, 0xCC, 0xCC, 0x8C, 0xCC, 
  0xCC, 0x4C, 0x1C, 0x00, 0x8E, 0xFF, 0x01, 0x00, 0x00, 0x00, 0x00, 0xEF, 
  0xDF, 0xDD, 0xDD, 0xFD, 0xFF, 0xFF, 0xF8, 0x80, 0x87, 0xFF, 0x00, 0x00, 
  0x00, 0x00, 0x00, 0xFC, 0xFF, 0xFF, 0xFF, 0xFF, 0xFF, 0xFF, 0xF1, 0xFF, 
  0xC3, 0x7F, 0x00, 0x00, 0x00, 0x00, 0x00, 0x00, 0x00, 0x00, 0x00, 0x00, 
  0x00, 0x00, 0x00, 0x3F, 0xE0, 0x7F, 0x00, 0x00, 0x00, 0x00, 0x00, 0x00, 
  0x00, 0x00, 0x00, 0x00, 0x00, 0x00, 0x00, 0x00, 0xF0, 0x3F, 0x00, 0x00, 
  0x00, 0x00, 0x00, 0x00, 0x00, 0x00, 0x00, 0x00, 0x00, 0x00, 0x00, 0x00, 
  0xFC, 0x1F, 0x00, 0x00, 0x00, 0x00, 0x00, 0xF0, 0xFF, 0xFF, 0xFF, 0xFF, 
  0xFF, 0xFF, 0xFF, 0xC0, 0xFF, 0x0F, 0x00, 0x00, 0x00, 0x00, 0x00, 0xC0, 
  0xFF, 0xFF, 0xFF, 0xFF, 0xFF, 0xFF, 0x8F, 0xFF, 0xFF, 0x03, 0x00, 0x00, 
  0x00, 0x00, 0x00, 0x80, 0xFF, 0xFF, 0xFF, 0xFF, 0xFB, 0xFF, 0x03, 0xF8, 
  0xFF, 0x01, 0x00, 0x00, 0x00, 0x00, 0x00, 0x00, 0xFF, 0xFF, 0xFF, 0x1F, 
  0x00, 0x00, 0x00, 0x00, 0x7F, 0x00, 0x00, 0x00, 0x00, 0x00, 0x00, 0x00, 
  0xFE, 0x8F, 0x01, 0x00, 0x00, 0x00, 0x00, 0x00, 0x00, 0x00, 0x00, 0x00, 
  0x00, 0x00, 0x00, 0x00, 0x00, 0x00, 0x00, 0x00, 0x00, 0x00, 0x00, 0x00, 
  0x00, 0x00, 0x00, 0x00, 0x00, 0x00, 0x00, 0x00, 0x00, 0x00, 0x00, 0x00, 
  0x00, 0x00, 0x00, 0x00, 0x00, 0x00, 0x00, 0x00, 0x00, 0x00, 0x00, 0x00, 
  0x00, 0x00, 0x00, 0x00, 0x00, 0x00, 0x00, 0x00, 0x00, 0x00, 0x00, 0x00, 
  0x00, 0x00, 0x00, 0x00, 0x00, 0x00, 0x00, 0x00, 0x00, 0x00, 0x00, 0x00, 
  0x00, 0x00, 0x00, 0x00, 0x00, 0x00, 0x00, 0x00, 0x00, 0x00, 0x00, 0x00, 
  0x00, 0x00, 0x00, 0x00, 0x00, 0x00, 0x00, 0x00, 0x00, 0x00, 0x00, 0x00, 
  0x00, 0x00, 0x00, 0x00, 0x00, 0x00, 0x00, 0x00, 0x00, 0x00, 0x00, 0x00, 
  0x00, 0x00, 0x00, 0x00, 0x00, 0x00, 0x00, 0x00, 0x00, 0x00, 0x00, 0x00, 
  0x00, 0x00, 0x00, 0x00, 0x00, 0x00, 0x00, 0x00, 0x00, 0x00, 0x00, 0x00, 
  0x00, 0x00, 0x00, 0x00, 0x00, 0x00, 0x00, 0x00, 0x00, 0x00, 0x00, 0x00, 
  0x00, 0x00, 0x00, 0x00, 0x00, 0x00, 0x00, 0x00, 0x00, 0x00, 0x00, 0x00, 
  0x00, 0x00, 0x00, 0x00, 0x00, 0x00, 0x00, 0x00, 0x00, 0x00, 0x00, 0x00, 
  0x00, 0x00, 0x00, 0x00, 0x00, 0x00, 0x00, 0x00, 0x00, 0x00, 0x00, 0x00, 
  0x00, 0x00, 0x00, 0x00, 0x00, 0x00, 0x00, 0x00, };
