#define picture-4_width 64
#define picture-4_height 64
static char picture-4_bits[] = {
  0x00, 0x00, 0x00, 0x00, 0x00, 0x00, 0x00, 0x00, 0x00, 0x00, 0x00, 0x00, 
  0x00, 0x00, 0x00, 0x00, 0x00, 0x00, 0x00, 0x00, 0x00, 0x00, 0x00, 0x00, 
  0x00, 0x00, 0x00, 0x00, 0x00, 0x00, 0x00, 0x00, 0x00, 0x00, 0x00, 0x00, 
  0x00, 0x00, 0x00, 0x00, 0x00, 0x00, 0x00, 0x00, 0x00, 0x00, 0x00, 0x00, 
  0x00, 0x00, 0x00, 0x00, 0x00, 0x00, 0x00, 0x00, 0x00, 0x00, 0x00, 0x00, 
  0x00, 0x00, 0x00, 0x00, 0x00, 0x00, 0x00, 0xC0, 0x01, 0x00, 0x00, 0x00, 
  0x00, 0x60, 0x55, 0x73, 0x27, 0x55, 0x03, 0x00, 0x00, 0xF0, 0xFF, 0x9B, 
  0xEC, 0xFF, 0x07, 0x00, 0x00, 0xF8, 0xFF, 0xE9, 0xCB, 0xFF, 0x27, 0x00, 
  0x00, 0xF8, 0x00, 0xEC, 0x1B, 0x80, 0x2F, 0x00, 0x00, 0x70, 0x00, 0x74, 
  0x1F, 0x00, 0x67, 0x00, 0x00, 0x38, 0x8E, 0xEC, 0x9B, 0x38, 0xE6, 0x00, 
  0x00, 0x38, 0xF1, 0xE9, 0xCB, 0x67, 0xE6, 0x01, 0x00, 0x30, 0x32, 0xC9, 
  0x49, 0x26, 0xE6, 0x03, 0x00, 0x38, 0xFD, 0x31, 0xC6, 0x5B, 0xE6, 0x07, 
  0x00, 0x30, 0x32, 0xE0, 0x03, 0x26, 0xE6, 0x0F, 0x00, 0x38, 0x00, 0x00, 
  0x00, 0x00, 0xE6, 0x0F, 0x00, 0x38, 0x00, 0x00, 0x00, 0x00, 0xE6, 0x1F, 
  0x00, 0x30, 0xFE, 0xFF, 0xFF, 0x3F, 0xE6, 0x27, 0x00, 0x38, 0x00, 0x00, 
  0x00, 0x00, 0xE6, 0x03, 0x00, 0x30, 0x00, 0x00, 0x00, 0x00, 0xE6, 0x03, 
  0x00, 0x38, 0x00, 0x00, 0x00, 0x00, 0xE6, 0x03, 0x00, 0x38, 0x8E, 0x04, 
  0x0E, 0x38, 0xE6, 0x03, 0x00, 0x30, 0x00, 0x00, 0x00, 0x00, 0xE6, 0x03, 
  0x00, 0x38, 0x00, 0x00, 0x00, 0x00, 0xE6, 0x03, 0x00, 0x30, 0xFE, 0xFF, 
  0xFF, 0x3F, 0xE6, 0x03, 0x00, 0x38, 0xFE, 0xFF, 0xFF, 0x3F, 0xE6, 0x03, 
  0x00, 0x38, 0x00, 0x00, 0x00, 0x00, 0xE6, 0x03, 0x00, 0x38, 0x7E, 0xFE, 
  0xFF, 0x3F, 0xE6, 0x03, 0x00, 0x30, 0x00, 0x00, 0x00, 0x00, 0xE6, 0x01, 
  0x00, 0x30, 0x1C, 0x00, 0x00, 0x00, 0xE6, 0x01, 0x00, 0x38, 0x26, 0xFC, 
  0x0F, 0x00, 0xE6, 0x01, 0x00, 0x30, 0x22, 0x00, 0x00, 0x00, 0xE6, 0x01, 
  0x00, 0x38, 0x36, 0xF8, 0x07, 0xFC, 0xE5, 0x01, 0x00, 0x30, 0x08, 0xFC, 
  0x0F, 0xFE, 0xE3, 0x01, 0x00, 0x38, 0x18, 0x04, 0x00, 0x0E, 0xE2, 0x01, 
  0x00, 0x38, 0x76, 0x00, 0x00, 0xCE, 0xE3, 0x01, 0x00, 0x30, 0xD9, 0x00, 
  0x01, 0xFF, 0xC7, 0x01, 0x00, 0x38, 0xB5, 0x00, 0xC3, 0xFF, 0x9F, 0x01, 
  0x00, 0xB0, 0xA2, 0x00, 0x67, 0xC0, 0x23, 0x01, 0x00, 0xB8, 0xA7, 0x00, 
  0x27, 0xFF, 0x23, 0x03, 0x00, 0x38, 0xBD, 0x78, 0x36, 0xF9, 0x63, 0x07, 
  0x00, 0x30, 0xC3, 0x48, 0xB6, 0xFE, 0x61, 0x0F, 0x00, 0x38, 0x3E, 0xC8, 
  0x36, 0x03, 0x60, 0x1F, 0x00, 0x30, 0x2E, 0x88, 0x33, 0x03, 0x20, 0x1F, 
  0x00, 0x38, 0x2E, 0x0C, 0x20, 0x03, 0x20, 0x1F, 0x00, 0x38, 0x3E, 0x08, 
  0xE0, 0xE3, 0xBF, 0x1F, 0x00, 0x70, 0x20, 0x00, 0xC0, 0xE3, 0xCF, 0x1F, 
  0x00, 0xD8, 0x00, 0x00, 0x00, 0x82, 0xE2, 0x1F, 0x00, 0xF8, 0xFF, 0xFF, 
  0x7F, 0x82, 0xF2, 0x0F, 0x00, 0xB0, 0xFF, 0xFF, 0xFF, 0x06, 0xFB, 0x0F, 
  0x00, 0xE0, 0x57, 0xFF, 0xDF, 0xF8, 0xF9, 0x07, 0x00, 0x00, 0x00, 0x00, 
  0x00, 0x00, 0xFE, 0x03, 0x00, 0xC0, 0xFF, 0xFF, 0xFF, 0xFF, 0xFF, 0x01, 
  0x00, 0x80, 0xFF, 0xFF, 0xFF, 0xFF, 0xFF, 0x00, 0x00, 0x00, 0xFF, 0xFF, 
  0xFF, 0xFF, 0x7F, 0x00, 0x00, 0x00, 0xFE, 0xFF, 0x01, 0x00, 0x1F, 0x00, 
  0x00, 0x00, 0xF8, 0x3F, 0x00, 0x00, 0x00, 0x00, 0x00, 0x00, 0xF0, 0x01, 
  0x00, 0x00, 0x00, 0x00, 0x00, 0x00, 0x60, 0x00, 0x00, 0x00, 0x00, 0x00, 
  0x00, 0x00, 0x00, 0x00, 0x00, 0x00, 0x00, 0x00, };
