#define picture-5_width 72
#define picture-5_height 72
static char picture-5_bits[] = {
  0x00, 0x00, 0x00, 0x00, 0x00, 0x00, 0x00, 0x00, 0x00, 0x00, 0x00, 0x00, 
  0x00, 0x00, 0x00, 0x00, 0x00, 0x00, 0x00, 0x00, 0x00, 0x00, 0x00, 0x00, 
  0x00, 0x00, 0x00, 0x00, 0x00, 0x00, 0x00, 0x00, 0x00, 0x00, 0x00, 0x00, 
  0x00, 0x00, 0x00, 0x00, 0x00, 0x00, 0x00, 0x00, 0x00, 0x00, 0x00, 0x00, 
  0x00, 0x00, 0x00, 0x00, 0x00, 0x00, 0x00, 0x00, 0x00, 0x00, 0x00, 0x00, 
  0x00, 0x00, 0x00, 0x00, 0x00, 0x00, 0x00, 0x00, 0x00, 0x00, 0x00, 0x00, 
  0x00, 0x00, 0x00, 0x00, 0x00, 0x00, 0x00, 0x00, 0x00, 0x00, 0x00, 0x00, 
  0x00, 0x0C, 0x00, 0x00, 0x00, 0x00, 0x00, 0x00, 0x00, 0x00, 0x7F, 0x00, 
  0x00, 0x00, 0x00, 0x00, 0xC0, 0xFF, 0xBF, 0xC9, 0xFE, 0xFF, 0x01, 0x00, 
  0x00, 0xE0, 0xFE, 0xDF, 0xBE, 0xFD, 0x3F, 0x0B, 0x00, 0x00, 0xA0, 0xFE, 
  0x4F, 0x3E, 0xFD, 0xBF, 0x1A, 0x00, 0x00, 0x20, 0x03, 0x40, 0x7F, 0x01, 
  0x60, 0x1A, 0x00, 0x00, 0xE0, 0x01, 0x40, 0x77, 0x01, 0xC0, 0x3B, 0x00, 
  0x00, 0xE0, 0x38, 0x46, 0x3E, 0x31, 0x8F, 0x7B, 0x00, 0x00, 0xE0, 0xC4, 
  0x49, 0x3F, 0xE9, 0x89, 0xFB, 0x00, 0x00, 0xE0, 0xD8, 0xC9, 0xBE, 0xCC, 
  0x8C, 0xFB, 0x01, 0x00, 0xE0, 0x64, 0x8F, 0xC1, 0x78, 0x93, 0xFB, 0x03, 
  0x00, 0xE0, 0x98, 0x01, 0x7F, 0xC0, 0x8C, 0xFB, 0x07, 0x00, 0xE0, 0x00, 
  0x00, 0x08, 0x00, 0x80, 0xFB, 0x07, 0x00, 0xE0, 0x00, 0x00, 0x00, 0x00, 
  0x80, 0xFA, 0x07, 0x00, 0xE0, 0x00, 0x00, 0x00, 0x00, 0x80, 0xFB, 0x01, 
  0x00, 0xE0, 0xF8, 0xFF, 0xF7, 0xFF, 0x8F, 0xFB, 0x01, 0x00, 0xE0, 0x00, 
  0x00, 0x00, 0x00, 0x80, 0xFB, 0x01, 0x00, 0xE0, 0x00, 0x00, 0x00, 0x00, 
  0x80, 0xFB, 0x01, 0x00, 0xE0, 0x00, 0x00, 0x00, 0x00, 0x80, 0xFB, 0x01, 
  0x00, 0xE0, 0xF8, 0xFF, 0xFF, 0xFF, 0x8F, 0xFB, 0x01, 0x00, 0xE0, 0x00, 
  0x00, 0x00, 0x00, 0x80, 0xFB, 0x01, 0x00, 0xE0, 0x00, 0x00, 0x00, 0x00, 
  0x80, 0xFB, 0x00, 0x00, 0xE0, 0x00, 0x00, 0x00, 0x00, 0x80, 0xFB, 0x00, 
  0x00, 0xE0, 0xF8, 0xFF, 0xFF, 0xFF, 0x8F, 0xFB, 0x00, 0x00, 0xE0, 0x00, 
  0x00, 0x00, 0x00, 0x80, 0xFB, 0x00, 0x00, 0xE0, 0x00, 0x00, 0x00, 0x00, 
  0x80, 0xFB, 0x00, 0x00, 0xE0, 0xF8, 0xF1, 0xFF, 0xFF, 0x8F, 0xFB, 0x00, 
  0x00, 0xE0, 0x00, 0x00, 0x00, 0x00, 0x80, 0xFB, 0x00, 0x00, 0xE0, 0xF0, 
  0x00, 0x00, 0x00, 0x80, 0xFB, 0x00, 0x00, 0xE0, 0x90, 0xC1, 0xFF, 0x01, 
  0x80, 0xFA, 0x00, 0x00, 0xE0, 0x18, 0x41, 0x88, 0x00, 0x80, 0xFB, 0x00, 
  0x00, 0xE0, 0x98, 0x81, 0x20, 0x00, 0x1C, 0xFB, 0x00, 0x00, 0xE0, 0xF0, 
  0xE0, 0xFF, 0x81, 0x7F, 0xFA, 0x00, 0x00, 0xE0, 0x40, 0x60, 0x0B, 0xC0, 
  0xC0, 0xF8, 0x00, 0x00, 0xE0, 0xF0, 0x00, 0x00, 0x40, 0x9B, 0xF9, 0x00, 
  0x00, 0xE0, 0x98, 0x03, 0x00, 0x40, 0xB3, 0x71, 0x00, 0x00, 0xE0, 0x6C, 
  0x06, 0x18, 0xC0, 0xAF, 0x61, 0x00, 0x00, 0xE0, 0xB4, 0x06, 0x30, 0xFC, 
  0xAF, 0x4F, 0x00, 0x00, 0xE0, 0x1E, 0x05, 0x70, 0x0C, 0xB0, 0xD9, 0x00, 
  0x00, 0xE0, 0x1A, 0x0D, 0x70, 0x06, 0xBF, 0x91, 0x01, 0x00, 0xE0, 0x94, 
  0x85, 0x63, 0x06, 0x90, 0x90, 0x03, 0x00, 0xE0, 0xE4, 0xC6, 0x67, 0x86, 
  0xFF, 0x90, 0x07, 0x00, 0xE0, 0x0C, 0xC3, 0x66, 0xC2, 0x7F, 0x90, 0x07, 
  0x00, 0xE0, 0xF8, 0xC1, 0x6C, 0x66, 0x00, 0x90, 0x0F, 0x00, 0xE0, 0x78, 
  0xC1, 0x38, 0x66, 0x00, 0x90, 0x0F, 0x00, 0xE0, 0x58, 0x41, 0x00, 0x76, 
  0x00, 0x98, 0x0F, 0x00, 0xE0, 0xF8, 0x41, 0x00, 0x7C, 0x00, 0xCC, 0x0F, 
  0x00, 0xE0, 0x11, 0x01, 0x00, 0x78, 0xF8, 0xC7, 0x0F, 0x00, 0x20, 0x03, 
  0x00, 0x00, 0x40, 0x80, 0xE1, 0x0F, 0x00, 0xA0, 0x96, 0x00, 0x00, 0x48, 
  0xA0, 0xFD, 0x07, 0x00, 0xE0, 0xFE, 0xFF, 0xFF, 0x4F, 0x80, 0xFC, 0x07, 
  0x00, 0xC0, 0xFF, 0xFF, 0xFF, 0x9F, 0xE3, 0xFC, 0x03, 0x00, 0x80, 0x01, 
  0x0A, 0x51, 0x08, 0x3F, 0xFE, 0x01, 0x00, 0x00, 0x00, 0x00, 0x00, 0x00, 
  0x80, 0xFF, 0x00, 0x00, 0x00, 0xFF, 0xFF, 0xFF, 0xFF, 0xFF, 0xFF, 0x00, 
  0x00, 0x00, 0xFE, 0xFF, 0xFF, 0xFF, 0xFF, 0x7F, 0x00, 0x00, 0x00, 0xFC, 
  0xFF, 0xFF, 0xFF, 0xFF, 0x3F, 0x00, 0x00, 0x00, 0xF8, 0xFF, 0x1F, 0x00, 
  0xC0, 0x0F, 0x00, 0x00, 0x00, 0xF0, 0x7F, 0x03, 0x00, 0x00, 0x00, 0x00, 
  0x00, 0x00, 0xC0, 0x03, 0x00, 0x00, 0x00, 0x00, 0x00, 0x00, 0x00, 0x80, 
  0x00, 0x00, 0x00, 0x00, 0x00, 0x00, 0x00, 0x00, 0x00, 0x00, 0x00, 0x00, 
  0x00, 0x00, 0x00, 0x00, 0x00, 0x00, 0x00, 0x00, 0x00, 0x00, 0x00, 0x00, 
  };
