#define picture-1_width 24
#define picture-1_height 24
static char picture-1_bits[] = {
  0xFF, 0xFF, 0xFF, 0xFF, 0xFF, 0xFF, 0x3F, 0x66, 0xFC, 0xEF, 0xDB, 0xF7, 
  0xF7, 0xFF, 0xFF, 0x37, 0x3C, 0xFC, 0x97, 0x99, 0xFD, 0x17, 0x00, 0xFC, 
  0x17, 0x00, 0xFC, 0x17, 0x00, 0xFC, 0x17, 0x00, 0xFC, 0x97, 0xFE, 0xFD, 
  0x97, 0x00, 0xFC, 0x97, 0x1C, 0xFF, 0x97, 0x80, 0xF7, 0xF7, 0xD1, 0xFF, 
  0xF7, 0xFD, 0xF7, 0xD7, 0xFD, 0xF1, 0x97, 0xC0, 0xFC, 0xF7, 0xFF, 0xFE, 
  0xEF, 0x7F, 0xFF, 0xFF, 0xFF, 0xFF, 0xFF, 0xFF, 0xFF, 0xFF, 0xFF, 0xFF, 
  };
