#define picture-3_width 48
#define picture-3_height 48
static char picture-3_bits[] = {
  0x00, 0x00, 0x00, 0x00, 0x00, 0x00, 0x00, 0x00, 0x00, 0x00, 0x00, 0x00, 
  0x00, 0x00, 0x00, 0x00, 0x00, 0x00, 0x00, 0x00, 0x00, 0x00, 0x00, 0x00, 
  0x00, 0x00, 0xC0, 0x03, 0x00, 0x00, 0x00, 0x02, 0x1A, 0x3C, 0x20, 0x00, 
  0x00, 0x00, 0xC0, 0x01, 0x00, 0x00, 0x00, 0xFE, 0xAF, 0xF2, 0x3F, 0x00, 
  0x40, 0xFE, 0xD7, 0xF5, 0x7F, 0x01, 0x40, 0x0F, 0xF0, 0x0F, 0x78, 0x01, 
  0x40, 0x26, 0x70, 0x0F, 0x30, 0x03, 0x40, 0xF6, 0xD7, 0xE7, 0x27, 0x07, 
  0x40, 0x96, 0xB5, 0xD6, 0x25, 0x0F, 0x40, 0xF6, 0xE3, 0xA3, 0x26, 0x1F, 
  0x40, 0x06, 0x00, 0x00, 0x20, 0x3F, 0x40, 0x06, 0x00, 0x00, 0x20, 0x3F, 
  0x40, 0xE6, 0x3F, 0xFE, 0x23, 0x7F, 0x40, 0x06, 0x00, 0x00, 0x20, 0xFF, 
  0x40, 0x06, 0x00, 0x00, 0x20, 0x3F, 0x40, 0x06, 0x00, 0x00, 0x20, 0x1F, 
  0x40, 0x06, 0x00, 0x00, 0x20, 0x0F, 0x40, 0xE6, 0xFF, 0xFF, 0x23, 0x1F, 
  0x40, 0x06, 0x00, 0x00, 0x20, 0x0F, 0x40, 0xE6, 0xF9, 0xFF, 0x23, 0x0F, 
  0x40, 0x46, 0x00, 0x00, 0x20, 0x0F, 0x40, 0xE6, 0xF0, 0x05, 0x20, 0x0F, 
  0x40, 0x26, 0x01, 0x00, 0x60, 0x0F, 0x40, 0xE6, 0xF0, 0x83, 0x1F, 0x0F, 
  0x40, 0xC6, 0x70, 0x80, 0xBF, 0x0F, 0x40, 0xE6, 0x01, 0xC0, 0x3D, 0x0F, 
  0x40, 0xD2, 0x03, 0xE1, 0x77, 0x06, 0x40, 0xB2, 0x03, 0xF3, 0xBF, 0x04, 
  0x00, 0x3A, 0x03, 0x5B, 0x3C, 0x0D, 0x00, 0xD2, 0x72, 0xDA, 0x3F, 0x1D, 
  0x00, 0xB6, 0xD1, 0xDA, 0x0F, 0x3D, 0x00, 0xE6, 0x91, 0xDB, 0x00, 0x7D, 
  0x00, 0xE6, 0x11, 0x50, 0x80, 0x7D, 0x00, 0xA6, 0x01, 0x70, 0xFC, 0x7E, 
  0x00, 0x0E, 0x00, 0x40, 0x38, 0x7F, 0x00, 0xFE, 0xFF, 0x9F, 0xB8, 0x7F, 
  0x00, 0xFE, 0xFF, 0xBF, 0xDF, 0x7F, 0x00, 0x00, 0x00, 0x00, 0xE0, 0x7F, 
  0x00, 0xF8, 0xFF, 0xFF, 0xFF, 0x3F, 0x00, 0xF0, 0xFF, 0xFF, 0xFF, 0x0F, 
  0x00, 0xE0, 0xFF, 0xFF, 0xFF, 0x03, 0x00, 0xC0, 0xFF, 0x07, 0xE0, 0x00, 
  0x00, 0x80, 0x3F, 0x00, 0x00, 0x00, 0x00, 0x00, 0x0F, 0x00, 0x00, 0x00, 
  };
